assets/groupme/mono.svg

<svg viewBox="0 0 24 24" xmlns="http://www.w3.org/2000/svg"><path d="m11.1597 6.57419h1.6801v1.59479h-1.6801zm7.04-6.57419h-12.39959c-2.65113 0-4.80011 2.03979-4.80011 4.55577v11.76853c0 2.5159 2.14898 4.5557 4.80011 4.5557h4.12704l2.05145 3.12 2.052-3.12h4.1691c2.6509 0 4.8003-2.0398 4.8003-4.5557v-11.76856c0-2.51598-2.1494-4.55574-4.8003-4.55574zm-10.63137 8.16895h1.77922v-1.59479h-1.77922v-1.71969h1.77922v-1.6886h1.81215v1.6886h1.6801v-1.6886h1.8121v1.6886h1.7789v1.71969h-1.7789v1.59479h1.7789v1.71957h-1.7789v1.68868h-1.8121v-1.68868h-1.6801v1.68868h-1.81215v-1.68868h-1.77922zm12.74387 5.26315s-2.392 4.2759-8.0716 4.2759c-.0787 0-.1563-.001-.2336-.0023-.0771.0013-.1548.0023-.2333.0023-5.67954 0-8.07159-4.2759-8.07159-4.2759s-.15482-.2785-.15482-.5787c-.00975-.2166.10186-.5271.39481-.7101.1629-.1016.3169-.1519.45969-.1676.68387-.0688 1.08023.3538 1.40615.8364.35994.5326 2.43651 2.8659 6.19906 2.9551 3.7628-.0892 5.8394-2.4225 6.1993-2.9551.3259-.4826.7366-.9059 1.4062-.8364.1428.0157.2969.066.4597.1676.293.183.407.4406.3968.7099-.023.3962-.1568.5789-.1568.5789z"/></svg>

<svg xmlns="http://www.w3.org/2000/svg" viewBox="0 0 24 24"><path d="M11.16 6.574h1.68V8.17h-1.68zM18.2 0H5.8C3.15 0 1 2.04 1 4.556v11.768c0 2.516 2.149 4.556 4.8 4.556h4.127L11.98 24l2.052-3.12H18.2c2.65 0 4.8-2.04 4.8-4.556V4.556C23 2.04 20.85 0 18.2 0M7.568 8.169h1.78V6.574h-1.78v-1.72h1.78V3.166h1.812v1.688h1.68V3.166h1.812v1.688h1.779v1.72h-1.78V8.17h1.78v1.72h-1.78v1.688H12.84V9.89h-1.68v1.688H9.348V9.89h-1.78zm12.744 5.263s-2.392 4.276-8.071 4.276l-.234-.002-.233.002c-5.68 0-8.072-4.276-8.072-4.276s-.155-.278-.155-.579a.83.83 0 0 1 .395-.71 1.1 1.1 0 0 1 .46-.167c.684-.07 1.08.354 1.406.836.36.533 2.436 2.866 6.199 2.955 3.763-.089 5.84-2.422 6.2-2.955.325-.482.736-.906 1.405-.836.143.015.297.066.46.167.293.183.407.44.397.71-.023.396-.157.58-.157.58"/></svg>
